X:1
T:Ein Hertz so hart
T:André Vierendeels
T:Melody by Georg Vogler (1625) (Tenor 1 voice)
T:Sourec : Catechismus---Würzburg---J.Volmari---1652. Editor : André Vierendeels (01/10/17).
T:Notes : Original clef : C3, other voices supplied editorially Original note values have been halved Text Middle German
T:Ein Hertz so hart
T:©
T:©
C:André Vierendeels
Z:©
%%score [ 1 2 3 ]
L:1/8
Q:1/4=120
M:2/2
K:F
V:1 treble-8 nm="Tenor 1" snm="T 1"
V:2 treble-8 nm="Tenor 2" snm="T 2"
V:3 bass nm="Bass" snm="B"
V:1
"^1)" G4 G2 B2 | A2 G2 B2 c2 | d4 z2 d2- | d2 d2 f2 f2 | e2 d4 c2 | B4 z4 | B4 d2 d2 | %7
w: Ein Hertz so|hart, ist bö- ser|Arth, Gott|_ selb- sten hats|die Wi- der-|part,|wie all- zeit|
w: Hart- näck- ig-|keit umbs Le- ben|bring, Saul,|_ Pha- ra- o,|und Ne- lis|Kind,|in de- re|
 c2 B2 A2 G2 | F4 z4 | F4 G2 A2 | B2 B2 c2 B2 | A4 z4 | d4 c2 B2 | d4 f2 d2 | c4 B4 | z4 d4 | %16
w: hat der Jü- disch|Rath,|und nie- der|tratt die Gött- lich|Saat,|wie Ste- pha-|nus, der hei-|lig Mann,|ihn-|
w: Nott noch jetz und|lebt,|wel- cher nach|ne- wen Sec- ten|strebt,|nicht hö- ren|will die Kirch|so alt,|und|
 G2 F2 G2 A2 | B2 A2 !fermata!G4 |] %18
w: en sehr wol er-|wei- sen kan.|
w: ih- re Leh- er|ma- nig- falt.|
V:2
"^2)""^1)" G4 E2 G2 | F2 D2 F2 F2 | F4 z2 A2 | B2 G2 B2 d2 | c2 d2 F2 G2 | F4 z4 | G4 A2 F2 | %7
w: Ein Herz so|hart, is bö- ser|Arth, Gott|selb- * sten hats|die Wi- * der|part,|wie all- zeit|
w: A- ber die|un- busz- fer- tig-|keit, weisz|kein _ End der|Gott- lo- sig- *|keit,-|lebt all- zeit|
 G2 G2 E2 E2 | F4 z4 | D4 D2 C2 | D2 D2 E2 G2 | F4 z4 | B4 G2 D2 | A4 c2 F2 | E4 F4 | z4 A4 | %16
w: hat der Jü- disch|Rath,|und nie- der|tratt die Gött- lich|Saat,|wie Ste- pha-|nus, der hei-|lig Mann,|ihn-|
w: in gu- * ten|Tag,|will nicht dasz|man vom Him- mel|sag:|Ist ei- ner|Sünd und Las-|ter- voll,|gleich-|
 D2 C2 D2 F2 | D2 ^F2 G4 |] %18
w: en sehr wol er-|wei- sen kan.|
w: wol ist ihm dar-|bey noch wol.|
V:3
"^3)""^1)""^4)" G,4 C,2 G,,2 | B,,2 G,,2 B,,2 F,,2 | B,,4 z2 D,2 | G,,2 B,,4 B,,2 | %4
w: Ein Hertz so|hart, is bö- ser|Arth, Gott|selb sten hats|
w: Die- ser macht|mit Todt, Höll ein|Pack, je|grö- bre spal-|
 C,2 B,,2 D,2 C,2 | B,,4 z4 | G,4 D,2 B,,2 | C,2 D,2 C,2 E,2 | D,4 z4 | D,4 B,,2 F,,2 | %10
w: die Wi- * *|part,|wie all- zeit|hat der Jü- disch|Rath,|und nie- der|
w: * ten er _|hackt,|je bes- ser|hat ers ausz- ge-|richt,|wann ihm kein|
 B,,2 G,,2 C,2 D,2 | F,4 z4 | G,4 C,2 G,,2 | D,4 F,2 B,,2 | C,4 B,,4 | z4 F,4 | %16
w: tratt die Gött- lich|Saat,|wie Ste- pha-|nus, der hei-|lig Mann,|ihn-|
w: Mensch nur wi- der-|spricht,|ver- bleibt teuff-|lish in Un-|ge- nad,|ver-|
 B,,2 F,,2 B,,2 C,2 | G,,2 D,2 G,,4 |] %18
w: en sehr wol er-|wei- sen kan.|
w: til- get imh selbst|Hülff und Gnad.|

